X:1
T:Title
%%score 1 2
L:1/8
Q:1/4=110
M:4/4
K:F
V:1 treble nm="Grand Piano, Soprano"
V:2 bass nm="Choir Pad, Grace When the Sun"
V:1
 F2 F[FA] [Fc]2 [Fc]2 | [Fd]2 [Fd]2 [Fc]2 F[FG] | [FA]4 [DF]4 | [EG]6 z2 | F2 F[FA] [Fc]2 [Fc]2 | %5
w: By~Louise~Shepard~Pridgeon~(1865\-1928) * * * *|||||
 [Fd]2 [Fd]2 [Fc]2 F[FG] | [FA]4 [EG]4 | [CF]6 z2 | [Fd]2 [Fd][Fd] [Ff]2 [Fd]2 | %9
w: ||||
 [Fc]2 [FA]2 F2 F[FG] | [FA]4 [DF]4 | [EG]6 z2 | F2 F[FA] [Fc]2 [Fc]2 | [Fd]2 [Ff]2 [Fc]2 F[FG] | %14
w: |||||
 [FA]4 [EG]4 | [CF]6 z2 |[Q:1/4=103] [CF]2 C2 [CF][FA] [Fc]2 | [DG]2 D2 [CF][CE][CD]C | %18
w: ||||
 [CF]2 C2 [CF][FA] [Fd]2 | [Fc]2 [CE]2 [CF]4- | [CF]4 z4 |] %21
w: |||
V:2
 [F,A,]2 [F,A,][F,C] [F,A,]2 [F,A,]2 | [F,B,]2 [F,B,]2 [F,A,]2 [F,A,][F,B,] | [D,D]4 [D,A,]4 | %3
 [C,B,]6 z2 | [F,A,]2 [F,A,][F,C] [F,A,]2 [F,A,]2 | [F,B,]2 [F,B,]2 [F,A,]2 [F,A,][F,B,] | %6
 [C,C]4 [C,B,]4 | [F,A,]6 z2 | [F,B,]2 [F,B,][F,B,] [F,D]2 [F,B,]2 | %9
 [F,A,]2 [F,C]2 [F,A,]2 [F,A,][F,B,] | [D,D]4 [D,A,]4 | [C,B,]6 z2 | %12
 [F,A,]2 [F,A,][F,C] [F,A,]2 [F,A,]2 | [F,B,]2 [F,D]2 [F,A,]2 [F,A,][F,B,] | [C,C]4 [C,B,]4 | %15
 [F,A,]6 z2 | [F,A,]2 [G,B,]2 [F,A,][F,C] [F,A,]2 | [B,,B,]2 [B,,G,]2 [C,A,][C,B,] [C,B,]2 | %18
 [F,A,]2 [G,B,]2 [F,A,][F,C] [B,,B,]2 | [C,A,]2 [C,B,]2 [F,A,]4- | [F,A,]4 z4 |] %21

